Front/img/common-section_sousmetier/illu-6.svg

<svg width="474" height="542" viewBox="0 0 474 542" fill="none" xmlns="http://www.w3.org/2000/svg">
<path d="M102 319C102 263.772 146.772 219 202 219H364C424.751 219 474 268.249 474 329V540H102V319Z" fill="#E1E1E1"/>
<path d="M363.5 0.260817C420.7 -3.73918 461 39.2608 474 61.2608H169C179.667 44.7608 210.5 15.4607 248.5 30.2607C296 48.7607 292 5.26082 363.5 0.260817Z" fill="#E1E1E1"/>
<path d="M70.2852 112.166C33.9023 109.62 8.26885 136.994 0 151H194C187.215 140.496 167.603 121.843 143.433 131.265C113.22 143.042 115.764 115.349 70.2852 112.166Z" fill="#E1E1E1"/>
<path d="M309.368 260.062H236.514V540.001H474V506.897C474 480.031 467.491 463.239 451.411 448.366C438.547 436.468 417.974 417.182 409.296 409.026C405.722 396.712 395.283 361.241 382.112 317.871C365.649 263.658 343.06 260.062 309.368 260.062Z" fill="#152D5D"/>
<path d="M420.198 383.6C415.885 387.438 407.671 391.111 404.404 392.071L409.135 408.576C416.323 410.015 432.745 414.209 437.842 406.149C444.214 396.074 438.823 376.404 432.941 376.884C427.06 377.363 425.589 378.803 420.198 383.6Z" fill="white"/>
<path d="M343.783 280.929L241.433 280.496V400.437C280.037 400.148 372.061 400.437 384.784 400.437C394.976 400.437 395.767 394.086 394.897 390.478C390.33 373.735 377.738 334.967 370.43 312.105C363.123 289.243 357.705 280.929 343.783 280.929Z" fill="#E9E9EA"/>
<path d="M284.124 280.706L323.859 400.422H283.922L245.235 280.5L284.124 280.706Z" fill="white"/>
<path d="M330.499 400.422L290.27 280.93H295.674L336.203 400.422H330.499Z" fill="white"/>
<path d="M375.277 504.348C375.277 493.302 366.323 484.348 355.277 484.348H237.892V540H375.277V504.348Z" fill="#1C3B78"/>
<path d="M458.017 484.288C459.534 477.422 454.308 470.914 447.276 470.914H405.066C399.906 470.914 395.439 474.501 394.325 479.54L390.069 498.8C388.551 505.666 393.778 512.174 400.81 512.174H443.02C448.18 512.174 452.647 508.586 453.761 503.547L458.017 484.288Z" fill="#E1E1E1"/>
<rect width="59.6467" height="7.6762" rx="3.8381" transform="matrix(-1 0 0 1 450.691 516.973)" fill="#E1E1E1"/>
<path d="M167.317 260.062H237.203V540.001H2.88672V506.897C2.88672 480.031 9.38744 463.239 25.448 448.366C38.2965 436.468 58.8439 417.182 67.5115 409.026C71.0805 396.712 81.5072 361.241 94.6616 317.871C111.105 263.658 133.666 260.062 167.317 260.062Z" fill="#152D5D"/>
<path d="M56.4594 383.6C60.808 387.438 68.9764 391.717 72.2708 392.676L67.6898 408.454C60.4421 409.893 43.8089 414.209 38.6696 406.149C32.2456 396.074 37.6813 376.404 43.6112 376.884C49.5411 377.363 51.0236 378.803 56.4594 383.6Z" fill="white"/>
<path d="M132.943 280.929L242.02 280.504L242.207 400.446C203.651 400.158 104.7 400.437 91.9925 400.437C81.8133 400.437 81.023 394.086 81.8919 390.478C86.4535 373.735 99.03 334.967 106.329 312.105C113.627 289.243 119.039 280.929 132.943 280.929Z" fill="#E9E9EA"/>
<path d="M101.488 504.348C101.488 493.302 110.443 484.348 121.488 484.348H237.894V540H101.488V504.348Z" fill="#1C3B78"/>
<path d="M18.0228 483.715C16.9105 477.012 22.0801 470.914 28.8744 470.914H55.1891C60.5692 470.914 65.1598 474.806 66.0407 480.113L69.2369 499.373C70.3492 506.075 65.1796 512.174 58.3853 512.174H32.0706C26.6905 512.174 22.0999 508.282 21.2191 502.975L18.0228 483.715Z" fill="#E1E1E1"/>
<rect x="26.168" y="516.973" width="43.1378" height="7.6762" rx="3.8381" fill="#E1E1E1"/>
<path d="M215.176 394.741C215.176 394.741 204.312 393.279 195.616 382.465C195.616 382.465 197.785 391.557 186.187 401.97C178.154 409.159 184.42 447.458 187.804 454.216C187.804 454.216 155.752 485.796 103.578 460.504C103.578 460.504 116.682 412.814 117.636 385.85C118.811 355.231 122.355 335.546 133.079 306.639C143.803 277.733 146.344 261.783 144.888 246.563C143.432 231.344 144.165 207.514 170.995 201.757C197.825 195.999 200.998 227.549 200.998 227.549C200.998 227.549 203.368 267.89 192.814 277.132C183.567 285.282 167.711 274.939 167.711 274.939C167.711 274.939 164.036 293.653 168.294 300.261C168.294 300.261 174.168 306.98 188.677 312.757C203.83 318.765 206.26 362.821 214.293 370.891" fill="#E2BBA6"/>
<path d="M184.23 202.23C185.305 208.789 187.022 219.322 188.608 229.705C187.604 219.923 185.747 209.089 184.461 202.311L184.23 202.23Z" fill="#CEA999"/>
<path d="M200.979 227.59L188.608 229.703L189.231 239.114C189.351 244.281 188.94 248.426 187.664 250.389C182.322 258.629 180.194 239.375 175.776 239.795C171.357 240.216 169.299 245.242 172.472 253.813C175.645 262.384 164.238 264.767 163.254 269.573C162.27 274.379 154.609 301.443 163.254 310.705L176.499 306.7C173.5 304.932 170.745 302.781 168.305 300.302C164.047 293.694 167.723 274.98 167.723 274.98C167.723 274.98 183.568 285.323 192.826 277.173C193.592 276.487 194.267 275.706 194.834 274.85C200.105 267.47 200.859 248.737 201.009 244.722C201.16 240.706 200.979 227.59 200.979 227.59Z" fill="#CEA999"/>
<path d="M134.704 302.164C134.704 302.164 129.904 306.169 125.576 318.184C121.249 330.2 132.505 311.266 132.505 311.266L133.83 304.567L134.704 302.164Z" fill="#292289"/>
<path d="M186.498 450.633C186.498 450.633 201.864 505.595 201 539.999H99H84C84 539.999 85 512.499 89.5 494.499C94 476.499 105.475 453.286 105.475 453.286C105.475 453.286 150.008 476.105 186.498 450.633Z" fill="#F4EFEF"/>
<path d="M293 373.5C278 376 241.955 385.401 223.951 368.169C210.074 354.892 203.869 318.847 188.676 312.799C183.138 310.664 177.892 307.842 173.062 304.398C149.265 312.238 138.551 309.475 133.821 304.549C133.57 305.24 126.187 311.076 122 322C117 353 115.165 366.727 114.06 397.336C113.056 424.3 105.465 453.287 105.465 453.287C112.805 486.739 187.803 454.218 187.803 454.218C184.851 446.368 178.183 409.161 186.186 401.972C197.784 391.559 195.615 382.467 195.615 382.467C204.311 393.301 217.866 399.489 217.866 399.489C238.421 411.274 282 394.5 293 390.902V373.5Z" fill="#F4C7C3"/>
<path d="M293.001 390.999V385.499C293.001 385.499 258.001 401.971 235.501 399.488C228.001 398.66 219.173 392.279 209.824 389.505C200.476 386.732 191.318 369.02 191.318 369.02C190.515 387.393 178.435 390.286 171.085 405.265C165.633 416.38 169.559 445.737 171.949 460.155C181.297 457.031 187.804 454.217 187.804 454.217C184.852 446.367 178.184 409.16 186.187 401.971C197.785 391.558 195.616 382.467 195.616 382.467C204.312 393.3 217.867 399.488 217.867 399.488C238.422 411.303 282.501 394.499 293.001 390.999Z" fill="#D3A8A4"/>
<g style="mix-blend-mode:multiply" opacity="0.3">
<path d="M137.676 464.07C137.857 465.282 138.027 466.463 138.198 467.635C138.027 466.463 137.857 465.282 137.676 464.07Z" fill="black"/>
</g>
<g style="mix-blend-mode:multiply" opacity="0.3">
<path d="M137.535 463.15C137.535 462.829 137.445 462.509 137.395 462.148C137.435 462.509 137.495 462.829 137.535 463.15Z" fill="black"/>
</g>
<path d="M189 240L203.5 234.999C204.5 233.499 202.071 216.499 196 207.999C191 200.999 183.5 196.499 178.5 198.499C163.5 196.499 137.5 188 126 222.5C122.228 233.814 114.5 268.999 114.5 312.999C114.5 347.063 121.5 357.499 137.5 357.499C162 357.499 179 322.333 181 309.499C183 311.099 187.167 312.499 189 312.999C185.4 305.799 185.833 251.333 186.5 224.999C187.5 232 189 238.833 189 240Z" fill="#00181B"/>
<path d="M138.136 521L134 540H144C142 531 138.773 523.167 138.136 521Z" fill="#E1E1E1"/>
<path d="M138 521L134 540H126L130 525.5L119.5 519.5C124.3 520.3 133.833 520.833 138 521Z" fill="#C4C4C4"/>
<path d="M319 350H342L333 372H310L319 350Z" fill="#24AD79"/>
<path d="M286.501 407C284.501 408.2 221.273 422.022 208.273 427.855L173.273 450.855L181.773 447.355C200.607 440.855 278.301 424 291.501 416C308.001 406 308.001 398 313.501 395.5C319.001 393 315.501 384 322.001 378.5C327.201 374.1 327.501 369.667 327.001 368C329.001 366 329.167 362.5 329.001 361C329.401 359.4 328.167 358.333 327.501 358L312.001 367L314.001 362.5C315.501 361.333 318.901 358.6 320.501 357C322.101 355.4 321.501 354.333 321.001 354L313.501 359.5L307.001 367.5L308.001 369.5L322.001 365.5C316.001 372.667 303.601 388.1 302.001 392.5C300.001 398 289.001 405.5 286.501 407Z" fill="black" fill-opacity="0.2"/>
<path d="M299 370.5C297.4 372.5 294.333 373.334 293 373.5V390.5C298 390.5 300.295 390.588 304 389C307.5 387.5 310.5 384.5 312.5 381.5C314.5 378.5 319.116 374.664 322 372.5C326 369.5 324.167 368.167 323.5 368C324 367.5 324.5 367.3 326.5 364.5C328.5 361.7 327 360.667 326 360.5C328 358.5 328.5 357 326.5 356.5C324.5 356 318.5 360.5 316 362.5C315.219 363.125 309.5 368.5 308.5 368.5C307.5 368.5 311.26 363.361 312.5 361.5C313.5 360 319.793 355.707 320.5 355C321.5 354 322 352.5 320.5 352.001C319.158 351.553 314 355 311.5 357C309 359 301 368 299 370.5Z" fill="#E2BBA6"/>
<path d="M29.3989 523.312C31.6524 527.068 37.2233 536.457 39.7271 540.683H41.605C38.9447 535.988 33.2486 525.941 31.7463 523.312C29.8684 520.026 41.605 512.984 35.502 503.125C29.399 493.267 15.7845 446.79 12.9677 426.133C10.151 405.477 5.45629 394.21 3.57843 419.561C1.70057 444.912 4.04789 516.27 15.7845 518.148C25.1738 519.651 28.773 522.217 29.3989 523.312Z" fill="#00B67A"/>
<path d="M29.2907 519.515C24.1265 506.84 12.5777 469.095 7.69531 419.52" stroke="white"/>
<path d="M84.2186 513.883C84.5942 531.159 80.3064 538.608 78.1156 540.173H50.4172C44.408 540.173 42.2798 531.723 41.9668 527.498C44.3142 447.219 18.4936 374.885 30.2302 372.105C48.0699 367.88 83.7491 492.288 84.2186 513.883Z" fill="#00B67A" stroke="#00B67A"/>
<path d="M64.4633 541.111C67.7444 515.668 67.5569 450.565 40.5586 393.699" stroke="white"/>
<path d="M50.4152 522.803C53.8579 523.898 61.5884 527.779 64.9686 534.539C67.9418 533.287 74.9212 529.187 79.0525 522.803M50.4152 503.555C54.1709 503.868 62.5274 505.714 65.9075 510.597C67.7854 509.501 72.2922 505.808 75.2968 499.799M50.4152 481.49C52.919 481.49 59.2411 482.147 64.4991 484.776C66.377 483.368 70.3205 479.33 71.0716 474.448M49.4763 457.078C51.5106 456.921 56.6121 457.266 60.7434 459.895C61.9953 458.956 64.4991 456.045 64.4991 451.914M46.19 435.013C48.5373 434.387 53.9831 434.356 56.9877 439.238C57.6136 437.517 58.8655 433.135 58.8655 429.379M41.9648 415.295C43.9992 415.295 48.5373 415.859 50.4152 418.112C50.8847 416.704 51.8236 413.324 51.8236 411.07" stroke="white"/>
<path d="M13.7969 502.146C15.5182 504.18 20.2755 508.436 25.5335 509.188C26.7854 507.936 29.1014 504.117 28.3503 498.859" stroke="white"/>
<path d="M11.4485 487.593C13.0134 489.002 17.0821 491.913 20.8378 492.288C21.7768 491.349 23.6546 488.532 23.6546 484.777M10.0402 473.979C11.1356 475.387 14.0775 478.204 17.0821 478.204C18.021 477.422 19.8989 475.106 19.8989 472.101M8.1623 458.956C8.94474 460.208 11.1669 462.712 13.7959 462.712C14.8913 462.086 17.0821 460.083 17.0821 457.078M6.75391 444.403C7.53635 445.498 9.57069 447.689 11.4485 447.689C12.231 447.22 13.7959 445.717 13.7959 443.464M6.75391 431.258C7.22337 432.353 8.35008 434.544 9.10123 434.544C10.0402 434.544 11.4485 432.666 11.4485 431.258" stroke="white"/>
<path d="M96.8945 528.438C96.8945 535.198 100.65 539.079 102.528 540.174H109.101C115.485 540.174 118.333 532.35 118.959 528.438C125.532 511.068 114.734 465.529 109.101 452.384C103.467 439.239 98.7644 430.102 102.528 458.957C106.753 491.35 96.8945 519.987 96.8945 528.438Z" fill="#00B67A" stroke="#00B67A"/>
<path d="M105.811 540.642C106.136 538.901 106.483 536.849 106.832 534.539M107.689 465.059C108.763 470.842 109.403 477.05 109.718 483.368M101.586 527.028C103.049 528.436 106.147 531.91 106.832 534.539M106.832 534.539C108.526 533.913 112.571 531.722 115.2 527.967M106.832 534.539C107.403 530.765 107.981 526.305 108.481 521.394M102.994 514.822C104.305 515.917 107.237 518.765 108.481 521.394M108.481 521.394C110.252 520.768 114.261 518.671 116.139 515.291M108.481 521.394C108.886 517.422 109.241 513.155 109.502 508.719M104.872 504.024C105.925 504.963 108.324 507.216 109.502 508.719M109.502 508.719C110.776 508.249 113.886 506.653 116.139 504.024M109.502 508.719C109.744 504.606 109.905 500.348 109.951 496.043M105.811 493.226C106.849 493.696 109.131 494.916 109.951 496.043M109.951 496.043C111.075 495.417 113.604 493.696 114.731 491.818M109.951 496.043C109.995 491.832 109.928 487.575 109.718 483.368M106.281 481.02C107.007 481.333 108.712 482.241 109.718 483.368M109.718 483.368C110.45 483.211 112.196 482.241 113.323 479.612" stroke="white"/>
<path d="M123.651 522.803C121.022 529.939 120.051 537.356 119.895 540.173H122.712C123.181 536.887 123.651 527.967 127.876 522.803C132.101 517.638 146.185 523.742 149.002 515.761C151.818 507.78 182.334 440.177 187.498 431.727C192.662 423.276 221.299 387.597 178.108 423.276C134.918 458.956 117.548 493.696 118.017 503.555C118.487 513.413 126.937 513.883 123.651 522.803Z" fill="#00B67A" stroke="#00B67A"/>
<path d="M127.406 517.64C129.597 504.025 142.147 468.158 174.822 433.605" stroke="white"/>
<path d="M125.062 494.636C125.532 497.609 127.128 504.213 129.757 506.842C133.2 506.686 142.245 504.87 150.883 498.861M132.104 481.961C132.104 484.621 132.856 490.411 135.86 492.289C138.52 491.819 145.249 489.566 150.883 484.308M140.555 468.816C140.085 470.693 139.804 475.2 142.433 478.205C145.093 477.735 151.54 475.764 156.047 471.632M149.475 458.018C149.318 459.739 149.193 463.558 149.944 465.06C152.291 464.903 157.737 464.121 160.742 462.243M159.333 446.281C158.864 447.22 158.207 449.567 159.333 451.445C160.742 453.793 168.723 449.567 171.07 448.629" stroke="white"/>
</svg>

<svg xmlns="http://www.w3.org/2000/svg" fill="none" viewBox="0 0 474 542"><path fill="#E1E1E1" d="M102 319c0-55.228 44.772-100 100-100h162c60.751 0 110 49.249 110 110v211H102V319zM363.5.26c57.2-4 97.5 39 110.5 61H169c10.667-16.5 41.5-45.8 79.5-31 47.5 18.5 43.5-25 115-30zM70.285 112.166C33.902 109.62 8.27 136.994 0 151h194c-6.785-10.504-26.397-29.157-50.567-19.735-30.213 11.777-27.669-15.916-73.148-19.099z"/><path fill="#152D5D" d="M309.368 260.062h-72.854v279.939H474v-33.104c0-26.866-6.509-43.658-22.589-58.531-12.864-11.898-33.437-31.184-42.115-39.34-3.574-12.314-14.013-47.785-27.184-91.155-16.463-54.213-39.052-57.809-72.744-57.809z"/><path fill="#fff" d="M420.198 383.6c-4.313 3.838-12.527 7.511-15.794 8.471l4.731 16.505c7.188 1.439 23.61 5.633 28.707-2.427 6.372-10.075.981-29.745-4.901-29.265-5.881.479-7.352 1.919-12.743 6.716z"/><path fill="#E9E9EA" d="M343.783 280.929l-102.35-.433v119.941c38.604-.289 130.628 0 143.351 0 10.192 0 10.983-6.351 10.113-9.959-4.567-16.743-17.159-55.511-24.467-78.373-7.307-22.862-12.725-31.176-26.647-31.176z"/><path fill="#fff" d="M284.124 280.706l39.735 119.716h-39.937L245.235 280.5l38.889.206zM330.499 400.422L290.27 280.93h5.404l40.529 119.492h-5.704z"/><path fill="#1C3B78" d="M375.277 504.348c0-11.046-8.954-20-20-20H237.892V540h137.385v-35.652z"/><path fill="#E1E1E1" d="M458.017 484.288c1.517-6.866-3.709-13.374-10.741-13.374h-42.21a11 11 0 00-10.741 8.626l-4.256 19.26c-1.518 6.866 3.709 13.374 10.741 13.374h42.21c5.16 0 9.627-3.588 10.741-8.627l4.256-19.259z"/><rect width="59.647" height="7.676" fill="#E1E1E1" rx="3.838" transform="matrix(-1 0 0 1 450.691 516.973)"/><path fill="#152D5D" d="M167.317 260.062h69.886v279.939H2.887v-33.104c0-26.866 6.5-43.658 22.561-58.531 12.849-11.898 33.396-31.184 42.063-39.34 3.57-12.314 13.996-47.785 27.15-91.155 16.444-54.213 39.005-57.809 72.656-57.809z"/><path fill="#fff" d="M56.46 383.6c4.348 3.838 12.516 8.117 15.81 9.076l-4.58 15.778c-7.248 1.439-23.881 5.755-29.02-2.305-6.424-10.075-.989-29.745 4.941-29.265 5.93.479 7.413 1.919 12.848 6.716z"/><path fill="#E9E9EA" d="M132.943 280.929l109.077-.425.187 119.942c-38.556-.288-137.507-.009-150.214-.009-10.18 0-10.97-6.351-10.101-9.959 4.562-16.743 17.138-55.511 24.437-78.373 7.298-22.862 12.71-31.176 26.614-31.176z"/><path fill="#1C3B78" d="M101.488 504.348c0-11.046 8.955-20 20-20h116.406V540H101.488v-35.652z"/><path fill="#E1E1E1" d="M18.023 483.715c-1.113-6.703 4.057-12.801 10.851-12.801H55.19a11 11 0 0110.852 9.199l3.196 19.26c1.112 6.702-4.057 12.801-10.852 12.801H32.071a11 11 0 01-10.852-9.199l-3.196-19.26z"/><rect width="43.138" height="7.676" x="26.168" y="516.973" fill="#E1E1E1" rx="3.838"/><path fill="#E2BBA6" d="M215.176 394.741s-10.864-1.462-19.56-12.276c0 0 2.169 9.092-9.429 19.505-8.033 7.189-1.767 45.488 1.617 52.246 0 0-32.052 31.58-84.226 6.288 0 0 13.104-47.69 14.058-74.654 1.175-30.619 4.719-50.304 15.443-79.211 10.724-28.906 13.265-44.856 11.809-60.076-1.456-15.219-.723-39.049 26.107-44.806 26.83-5.758 30.003 25.792 30.003 25.792s2.37 40.341-8.184 49.583c-9.247 8.15-25.103-2.193-25.103-2.193s-3.675 18.714.583 25.322c0 0 5.874 6.719 20.383 12.496 15.153 6.008 17.583 50.064 25.616 58.134"/><path fill="#CEA999" d="M184.23 202.23c1.075 6.559 2.792 17.092 4.378 27.475-1.004-9.782-2.861-20.616-4.147-27.394l-.231-.081z"/><path fill="#CEA999" d="M200.979 227.59l-12.371 2.113.623 9.411c.12 5.167-.291 9.312-1.567 11.275-5.342 8.24-7.47-11.014-11.888-10.594-4.419.421-6.477 5.447-3.304 14.018 3.173 8.571-8.234 10.954-9.218 15.76-.984 4.806-8.645 31.87 0 41.132l13.245-4.005a40.002 40.002 0 01-8.194-6.398c-4.258-6.608-.582-25.322-.582-25.322s15.845 10.343 25.103 2.193a12.057 12.057 0 002.008-2.323c5.271-7.38 6.025-26.113 6.175-30.128.151-4.016-.03-17.132-.03-17.132z"/><path fill="#292289" d="M134.704 302.164s-4.8 4.005-9.128 16.02c-4.327 12.016 6.929-6.918 6.929-6.918l1.325-6.699.874-2.403z"/><path fill="#F4EFEF" d="M186.498 450.633s15.366 54.962 14.502 89.366H84s1-27.5 5.5-45.5 15.975-41.213 15.975-41.213 44.533 22.819 81.023-2.653z"/><path fill="#F4C7C3" d="M293 373.5c-15 2.5-51.045 11.901-69.049-5.331-13.877-13.277-20.082-49.322-35.275-55.37a70.694 70.694 0 01-15.614-8.401c-23.797 7.84-34.511 5.077-39.241.151-.251.691-7.634 6.527-11.821 17.451-5 31-6.835 44.727-7.94 75.336-1.004 26.964-8.595 55.951-8.595 55.951 7.34 33.452 82.338.931 82.338.931-2.952-7.85-9.62-45.057-1.617-52.246 11.598-10.413 9.429-19.505 9.429-19.505 8.696 10.834 22.251 17.022 22.251 17.022C238.421 411.274 282 394.5 293 390.902V373.5z"/><path fill="#D3A8A4" d="M293.001 390.999v-5.5s-35 16.472-57.5 13.989c-7.5-.828-16.328-7.209-25.677-9.983-9.348-2.773-18.506-20.485-18.506-20.485-.803 18.373-12.883 21.266-20.233 36.245-5.452 11.115-1.526 40.472.864 54.89 9.348-3.124 15.855-5.938 15.855-5.938-2.952-7.85-9.62-45.057-1.617-52.246 11.598-10.413 9.429-19.504 9.429-19.504 8.696 10.833 22.251 17.021 22.251 17.021 20.555 11.815 64.634-4.989 75.134-8.489z"/><path fill="#000" d="M137.676 464.07c.181 1.212.351 2.393.522 3.565-.171-1.172-.341-2.353-.522-3.565zM137.535 463.15c0-.321-.09-.641-.14-1.002.04.361.1.681.14 1.002z" opacity=".3"/><path fill="#00181B" d="M189 240l14.5-5.001c1-1.5-1.429-18.5-7.5-27-5-7-12.5-11.5-17.5-9.5-15-2-41-10.499-52.5 24.001-3.772 11.314-11.5 46.499-11.5 90.499 0 34.064 7 44.5 23 44.5 24.5 0 41.5-35.166 43.5-48 2 1.6 6.167 3 8 3.5-3.6-7.2-3.167-61.666-2.5-88 1 7.001 2.5 13.834 2.5 15.001z"/><path fill="#E1E1E1" d="M138.136 521L134 540h10c-2-9-5.227-16.833-5.864-19z"/><path fill="#C4C4C4" d="M138 521l-4 19h-8l4-14.5-10.5-6c4.8.8 14.333 1.333 18.5 1.5z"/><path fill="#24AD79" d="M319 350h23l-9 22h-23l9-22z"/><path fill="#000" fill-opacity=".2" d="M286.501 407c-2 1.2-65.228 15.022-78.228 20.855l-35 23 8.5-3.5c18.834-6.5 96.528-23.355 109.728-31.355 16.5-10 16.5-18 22-20.5s2-11.5 8.5-17c5.2-4.4 5.5-8.833 5-10.5 2-2 2.166-5.5 2-7 .4-1.6-.834-2.667-1.5-3l-15.5 9 2-4.5c1.5-1.167 4.9-3.9 6.5-5.5 1.6-1.6 1-2.667.5-3l-7.5 5.5-6.5 8 1 2 14-4c-6 7.167-18.4 22.6-20 27-2 5.5-13 13-15.5 14.5z"/><path fill="#E2BBA6" d="M299 370.5c-1.6 2-4.667 2.834-6 3v17c5 0 7.295.088 11-1.5 3.5-1.5 6.5-4.5 8.5-7.5s6.616-6.836 9.5-9c4-3 2.167-4.333 1.5-4.5.5-.5 1-.7 3-3.5s.5-3.833-.5-4c2-2 2.5-3.5.5-4s-8 4-10.5 6c-.781.625-6.5 6-7.5 6s2.76-5.139 4-7c1-1.5 7.293-5.793 8-6.5 1-1 1.5-2.5 0-2.999-1.342-.448-6.5 2.999-9 4.999-2.5 2-10.5 11-12.5 13.5z"/><path fill="#00B67A" d="M29.399 523.312a5432.179 5432.179 0 0110.328 17.371h1.878c-2.66-4.695-8.356-14.742-9.859-17.371-1.878-3.286 9.859-10.328 3.756-20.187-6.103-9.858-19.718-56.335-22.534-76.992-2.817-20.656-7.512-31.923-9.39-6.572-1.877 25.351.47 96.709 12.207 98.587 9.389 1.503 12.988 4.069 13.614 5.164z"/><path stroke="#fff" d="M29.29 519.515c-5.163-12.675-16.712-50.42-21.595-99.995"/><path fill="#00B67A" stroke="#00B67A" d="M84.219 513.883c.375 17.276-3.913 24.725-6.103 26.29H50.417c-6.009 0-8.137-8.45-8.45-12.675 2.347-80.279-23.473-152.613-11.737-155.393 17.84-4.225 53.52 120.183 53.989 141.778z"/><path stroke="#fff" d="M64.463 541.111c3.281-25.443 3.094-90.546-23.904-147.412M50.415 522.803c3.443 1.095 11.173 4.976 14.554 11.736 2.973-1.252 9.952-5.352 14.084-11.736m-28.638-19.248c3.756.313 12.112 2.159 15.492 7.042 1.878-1.096 6.385-4.789 9.39-10.798M50.415 481.49c2.504 0 8.826.657 14.084 3.286 1.878-1.408 5.822-5.446 6.573-10.328m-21.596-17.37c2.035-.157 7.136.188 11.267 2.817 1.252-.939 3.756-3.85 3.756-7.981M46.19 435.013c2.347-.626 7.793-.657 10.798 4.225.626-1.721 1.877-6.103 1.877-9.859m-16.9-14.084c2.034 0 6.572.564 8.45 2.817.47-1.408 1.409-4.788 1.409-7.042M13.797 502.146c1.721 2.034 6.479 6.29 11.736 7.042 1.252-1.252 3.568-5.071 2.817-10.329M11.448 487.593c1.565 1.409 5.634 4.32 9.39 4.695.939-.939 2.817-3.756 2.817-7.511M10.04 473.979c1.096 1.408 4.038 4.225 7.042 4.225.939-.782 2.817-3.098 2.817-6.103M8.162 458.956c.783 1.252 3.005 3.756 5.634 3.756 1.095-.626 3.286-2.629 3.286-5.634M6.754 444.403c.782 1.095 2.817 3.286 4.694 3.286.783-.469 2.348-1.972 2.348-4.225m-7.042-12.206c.47 1.095 1.596 3.286 2.347 3.286.94 0 2.347-1.878 2.347-3.286"/><path fill="#00B67A" stroke="#00B67A" d="M96.894 528.438c0 6.76 3.756 10.641 5.634 11.736h6.573c6.384 0 9.232-7.824 9.858-11.736 6.573-17.37-4.225-62.909-9.858-76.054-5.634-13.145-10.337-22.282-6.573 6.573 4.225 32.393-5.634 61.03-5.634 69.481z"/><path stroke="#fff" d="M105.811 540.642c.325-1.741.672-3.793 1.021-6.103m.857-69.48c1.074 5.783 1.714 11.991 2.029 18.309m-8.132 43.66c1.463 1.408 4.561 4.882 5.246 7.511m0 0c1.694-.626 5.739-2.817 8.368-6.572m-8.368 6.572a274.928 274.928 0 001.649-13.145m-5.487-6.572c1.311 1.095 4.243 3.943 5.487 6.572m0 0c1.771-.626 5.78-2.723 7.658-6.103m-7.658 6.103c.405-3.972.76-8.239 1.021-12.675m-4.63-4.695c1.053.939 3.452 3.192 4.63 4.695m0 0c1.274-.47 4.384-2.066 6.637-4.695m-6.637 4.695c.242-4.113.403-8.371.449-12.676m-4.14-2.817c1.038.47 3.32 1.69 4.14 2.817m0 0c1.124-.626 3.653-2.347 4.78-4.225m-4.78 4.225c.044-4.211-.023-8.468-.233-12.675m-3.437-2.348c.726.313 2.431 1.221 3.437 2.348m0 0c.732-.157 2.478-1.127 3.605-3.756"/><path fill="#00B67A" stroke="#00B67A" d="M123.651 522.803c-2.629 7.136-3.6 14.553-3.756 17.37h2.817c.469-3.286.939-12.206 5.164-17.37 4.225-5.165 18.309.939 21.126-7.042 2.816-7.981 33.332-75.584 38.496-84.034 5.164-8.451 33.801-44.13-9.39-8.451-43.19 35.68-60.56 70.42-60.091 80.279.47 9.858 8.92 10.328 5.634 19.248z"/><path stroke="#fff" d="M127.406 517.64c2.191-13.615 14.741-49.482 47.416-84.035M125.062 494.636c.47 2.973 2.066 9.577 4.695 12.206 3.443-.156 12.488-1.972 21.126-7.981m-18.779-16.9c0 2.66.752 8.45 3.756 10.328 2.66-.47 9.389-2.723 15.023-7.981m-10.328-15.492c-.47 1.877-.751 6.384 1.878 9.389 2.66-.47 9.107-2.441 13.614-6.573m-6.572-13.614c-.157 1.721-.282 5.54.469 7.042 2.347-.157 7.793-.939 10.798-2.817m-1.409-15.962c-.469.939-1.126 3.286 0 5.164 1.409 2.348 9.39-1.878 11.737-2.816"/></svg>
